packages/components/Atoms/Icon/assets/img/rpl_icon_child_friendly.svg

<svg width="10" height="12" viewBox="0 0 10 12" overflow="visible" xmlns="http://www.w3.org/2000/svg">
  <path d="M9.25659 2.36927C8.73082 1.84355 7.96333 1.74916 7.3567 2.02873C7.12893 0.891961 6.12136 0 4.87502 0C3.62864 0 2.62108 0.892031 2.39334 2.02873C1.78563 1.74865 1.0184 1.84437 0.493497 2.3692C-0.164487 3.02721 -0.164487 4.09777 0.493427 4.75573L1.87502 6.13648V10.3125C1.87502 11.243 2.63203 12 3.56252 12H3.75002C4.18181 12 4.57626 11.837 4.87502 11.5693C5.17378 11.837 5.56823 12 6.00002 12H6.18752C7.11801 12 7.87502 11.243 7.87502 10.3125V6.13648L9.25657 4.75573C9.9145 4.09777 9.9145 3.02721 9.25659 2.36927ZM4.87502 1.125C5.65167 1.125 6.28127 1.7546 6.28127 2.53125C6.28127 3.3079 5.65167 3.9375 4.87502 3.9375C4.09837 3.9375 3.46877 3.3079 3.46877 2.53125C3.46877 1.7546 4.09837 1.125 4.87502 1.125ZM8.46028 3.96026L6.75002 5.67049V10.3125C6.75002 10.6232 6.49818 10.875 6.18752 10.875H6.00002C5.68936 10.875 5.43752 10.6232 5.43752 10.3125V8.0625H4.31252V10.3125C4.31252 10.6232 4.06068 10.875 3.75002 10.875H3.56252C3.25186 10.875 3.00002 10.6232 3.00002 10.3125V5.67049L1.28976 3.96023C1.07011 3.74055 1.07011 3.3844 1.28976 3.16472C1.50944 2.94506 1.86557 2.94506 2.08525 3.16472L3.79551 4.875H5.9545L7.66476 3.16474C7.88444 2.94509 8.24057 2.94509 8.46025 3.16474C8.67993 3.38442 8.67993 3.74058 8.46028 3.96026Z"
    fill="inherit" />
</svg>

<svg width="10" height="12" overflow="visible" xmlns="http://www.w3.org/2000/svg"><path d="M9.257 2.37a1.69 1.69 0 00-1.9-.341 2.532 2.532 0 00-4.964 0 1.69 1.69 0 00-1.9 2.727l1.382 1.38v4.176c0 .931.757 1.688 1.688 1.688h.187a1.68 1.68 0 001.125-.43c.299.267.693.43 1.125.43h.188a1.69 1.69 0 001.687-1.688V6.136l1.382-1.38a1.69 1.69 0 000-2.387zM4.875 1.124a1.406 1.406 0 110 2.813 1.406 1.406 0 010-2.813zM8.46 3.96L6.75 5.67v4.643c0 .31-.252.562-.562.562H6a.562.562 0 01-.562-.563v-2.25H4.313v2.25c0 .311-.252.563-.563.563h-.187A.562.562 0 013 10.312V5.67L1.29 3.96a.563.563 0 01.795-.795l1.71 1.71h2.16l1.71-1.71a.563.563 0 01.795.795z" fill="inherit"/></svg>
